img/decor/facebook-logo.svg

<svg width="32" height="32" viewBox="0 0 32 32" fill="none" xmlns="http://www.w3.org/2000/svg">
<path d="M16 0C12.8355 0 9.74207 0.938384 7.11088 2.69649C4.4797 4.45459 2.42894 6.95345 1.21793 9.87706C0.0069325 12.8007 -0.309921 16.0177 0.307443 19.1214C0.924806 22.2251 2.44866 25.0761 4.6863 27.3137C6.92394 29.5513 9.77487 31.0752 12.8786 31.6926C15.9823 32.3099 19.1993 31.9931 22.1229 30.7821C25.0466 29.5711 27.5454 27.5203 29.3035 24.8891C31.0616 22.2579 32 19.1645 32 16C32 11.7565 30.3143 7.68687 27.3137 4.68629C24.3131 1.68571 20.2435 0 16 0ZM20.06 9.45H17V12.9H20V16.34H17V25H14V16.34H11V12.9H14V9.45C13.9449 8.59575 14.2291 7.75426 14.7908 7.1083C15.3525 6.46234 16.1464 6.06407 17 6H20V9.45H20.06Z" fill="white"/>
</svg>

<svg width="32" height="32" fill="none" xmlns="http://www.w3.org/2000/svg"><path d="M16 0a16 16 0 100 32 16 16 0 000-32zm4.06 9.45H17v3.45h3v3.44h-3V25h-3v-8.66h-3V12.9h3V9.45A3.25 3.25 0 0117 6h3v3.45h.06z" fill="#fff" fill-opacity=".8"/></svg>
